X: 4302
T: Johnny made a Wedding o't.   a Reel.
%R: reel
B: Niel Gow & Sons "Complete Repository" v.4 p.30 #2
Z: 2021 John Chambers <jc:trillian.mit.edu>
M: C|
L: 1/8
K: G
% - - - - - - - - - -
% Voice 1 formatted for compactness and proofreading.
V: 1 staves=2
(c |\
B)GdG BGGB | A=FcF AFFc | BGdG BGGg | egdg BGG :| g | bgaf gd-de | =fdTc>_B AFFg |
(b/a/g) (a/g/f) gddg | (e/f/g) (f/g/a) gGGg || (b/a/g) (a/g/f) gdd>e | =fdTc>_B AFFA | GBAc Bdce | dgfa gGG |]
% - - - - - - - - - -
% Voice 2 preserves the book's staff layout.
V: 2 clef=bass middle=d
z |\
[g2G2][g2G2] [g2G2][g2G2] | [=f2F2][f2F2] [f2F2][f2F2] |\
[g2G2][g2G2] [g2G2][B2B,2] | [c2C2][d2D2] G2G :| z | g2d2 g2g2 | a2_b2 =f2f2 |
g2d2 g2b2 | c'2d'2 g2g2 || g2d2 g2g2 | a2_b2 =f2f2 | g2^f2 g2c'2 | d'2d2 g2G |]


